sources/design/Outline/e.svg

<svg:svg xmlns:cc="http://creativecommons.org/ns#" xmlns:dc="http://purl.org/dc/elements/1.1/" xmlns:inkscape="http://www.inkscape.org/namespaces/inkscape" xmlns:rdf="http://www.w3.org/1999/02/22-rdf-syntax-ns#" xmlns:sodipodi="http://sodipodi.sourceforge.net/DTD/sodipodi-0.dtd" xmlns:svg="http://www.w3.org/2000/svg" xml:space="preserve" width="1000" height="1000" version="1.1" style="clip-rule:evenodd;fill-rule:evenodd;image-rendering:optimizeQuality;shape-rendering:geometricPrecision;text-rendering:geometricPrecision" viewBox="0 0 1000 1000" id="svg10" sodipodi:docname="e.svg" inkscape:version="1.1.1 (3bf5ae0d25, 2021-09-20)"><svg:text text-anchor="middle" x="253.84598" y="143.09555" id="top" inkscape:label="top" style="clip-rule:evenodd;fill-rule:evenodd;image-rendering:optimizeQuality;shape-rendering:geometricPrecision;text-rendering:geometricPrecision">✛</svg:text><svg:metadata id="metadata14"><rdf:RDF><cc:Work rdf:about=""><dc:format>image/svg+xml</dc:format><dc:type rdf:resource="http://purl.org/dc/dcmitype/StillImage" /><dc:title /></cc:Work></rdf:RDF></svg:metadata><sodipodi:namedview pagecolor="#ffffff" bordercolor="#666666" borderopacity="1" objecttolerance="10" gridtolerance="10" guidetolerance="10" inkscape:pageopacity="0" inkscape:pageshadow="2" inkscape:window-width="1920" inkscape:window-height="1009" id="namedview12" showgrid="false" inkscape:zoom="0.84890884" inkscape:cx="130.1671" inkscape:cy="268.58008" inkscape:window-x="0" inkscape:window-y="60" inkscape:window-maximized="1" inkscape:current-layer="svg10" showguides="true" inkscape:guide-bbox="true" inkscape:document-rotation="0" inkscape:pagecheckerboard="0"><sodipodi:guide position="0,1000" orientation="0,1" id="guide16" inkscape:label="" inkscape:locked="true" inkscape:color="rgb(0,0,255)" /><sodipodi:guide position="1763.3122,2036.1693" orientation="1000,0" id="guide18" /><sodipodi:guide position="0,200" orientation="0,1" id="guide20" inkscape:label="base" inkscape:locked="true" inkscape:color="rgb(0,0,255)" /><inkscape:grid type="xygrid" id="grid24" originx="-473.37552" originy="-489.69235" /><sodipodi:guide position="0,0" orientation="0,1" id="guide34" inkscape:label="bottom" inkscape:locked="true" inkscape:color="rgb(0,0,255)" /><sodipodi:guide position="225.05109,1693.3186" orientation="0,1" id="guide44" inkscape:label="" inkscape:locked="false" inkscape:color="rgb(0,0,255)" /><sodipodi:guide position="0,900" orientation="0,1" id="guide46" inkscape:label="" inkscape:locked="true" inkscape:color="rgb(0,0,255)" /><sodipodi:guide position="438.5225,567.81901" orientation="-1,0" id="guide841" inkscape:label="width" inkscape:locked="false" inkscape:color="rgb(0,0,255)" /><sodipodi:guide position="-4.7119311,798.56494" orientation="0,-1" id="guide854" /></sodipodi:namedview>
 <svg:defs id="defs4"><inkscape:path-effect effect="fillet_chamfer" id="path-effect869" is_visible="true" lpeversion="1" satellites_param="F,0,0,1,0,0,0,1 @ F,0,0,1,0,0,0,1 @ F,0,0,1,0,0,0,1 @ F,0,0,1,0,0,0,1 @ F,0,0,1,0,0,0,1 @ F,0,0,1,0,0,0,1 @ F,0,0,1,0,0,0,1 @ F,0,1,1,0,20.655196,0,1 @ F,0,0,1,0,28.137051,0,1 @ F,0,0,1,0,0,0,1 @ F,0,0,1,0,0,0,1 @ F,0,0,1,0,0,0,1 @ F,0,0,1,0,0,0,1 @ F,0,0,1,0,0,0,1 @ F,0,0,1,0,0,0,1 @ F,0,0,1,0,0,0,1 @ F,0,0,1,0,0,0,1 @ F,0,0,1,0,0,0,1 @ F,0,0,1,0,0,0,1 @ F,0,0,1,0,0,0,1 @ F,0,0,1,0,0,0,1 @ F,0,0,1,0,0,0,1 @ F,0,0,1,0,0,0,1 @ F,0,0,1,0,0,0,1 @ F,0,0,1,0,0,0,1 @ F,0,0,1,0,0,0,1 @ F,0,0,1,0,0,0,1 @ F,0,0,1,0,0,0,1 @ F,0,0,1,0,0,0,1" unit="px" method="auto" mode="F" radius="0" chamfer_steps="1" flexible="false" use_knot_distance="true" apply_no_radius="true" apply_with_radius="true" only_selected="true" hide_knots="false" /><inkscape:path-effect effect="fillet_chamfer" id="path-effect855" is_visible="true" lpeversion="1" satellites_param="F,0,1,1,0,0,0,1 @ F,0,1,1,0,0,0,1 @ F,0,0,1,0,0,0,1 @ F,0,0,1,0,0,0,1 @ F,0,1,1,0,0,0,1 @ F,0,0,1,0,0,0,1 @ F,0,0,1,0,0,0,1 @ F,0,0,1,0,0,0,1 @ F,0,0,1,0,0,0,1 @ F,0,0,1,0,0,0,1 @ F,0,0,1,0,0,0,1 @ F,0,1,1,0,0,0,1 @ F,0,0,1,0,0,0,1 @ F,0,1,1,0,0,0,1 @ F,0,0,1,0,0,0,1 @ F,0,0,1,0,0,0,1 @ F,0,0,1,0,0,0,1 @ F,0,0,1,0,0,0,1 @ F,0,0,1,0,0,0,1 @ F,0,0,1,0,0,0,1 @ F,0,0,1,0,0,0,1 @ F,0,0,1,0,0,0,1 @ F,0,0,1,0,20.439656,0,1 @ F,0,0,1,0,36.251438,0,1 @ F,0,1,1,0,0,0,1 @ F,0,0,1,0,0,0,1 @ F,0,1,1,0,0,0,1 @ F,0,0,1,0,0,0,1 @ F,0,0,1,0,0,0,1" unit="px" method="auto" mode="F" radius="0" chamfer_steps="1" flexible="false" use_knot_distance="true" apply_no_radius="true" apply_with_radius="true" only_selected="true" hide_knots="false" /><inkscape:path-effect effect="spiro" id="path-effect862" is_visible="true" lpeversion="1" /><inkscape:path-effect effect="spiro" id="path-effect857" is_visible="true" lpeversion="1" /><inkscape:path-effect effect="spiro" id="path-effect853" is_visible="true" lpeversion="1" /><inkscape:path-effect effect="spiro" id="path-effect928" is_visible="true" lpeversion="1" /><inkscape:path-effect effect="spiro" id="path-effect921" is_visible="true" lpeversion="1" /><inkscape:path-effect effect="spiro" id="path-effect917" is_visible="true" lpeversion="1" /><inkscape:path-effect effect="spiro" id="path-effect849" is_visible="true" lpeversion="1" /><inkscape:path-effect effect="spiro" id="path-effect851" is_visible="true" lpeversion="1" />
  <svg:style type="text/css" id="style2">
   
    .fil0 {fill:#EF7F1A;fill-rule:nonzero}
   
  </svg:style>
 <inkscape:path-effect effect="spiro" id="path-effect1214" is_visible="true" lpeversion="1" /><inkscape:path-effect effect="spiro" id="path-effect1195" is_visible="true" lpeversion="1" /><inkscape:path-effect effect="spiro" id="path-effect992" is_visible="true" lpeversion="1" /><inkscape:path-effect effect="spiro" id="path-effect1060" is_visible="true" lpeversion="1" /><inkscape:path-effect effect="spiro" id="path-effect1047" is_visible="true" lpeversion="1" /><inkscape:path-effect effect="spiro" id="path-effect1085" is_visible="true" lpeversion="1" /><inkscape:path-effect effect="spiro" id="path-effect1286" is_visible="true" lpeversion="1" /><inkscape:path-effect effect="spiro" id="path-effect868" is_visible="true" lpeversion="1" /><inkscape:path-effect effect="fillet_chamfer" id="path-effect870" is_visible="true" lpeversion="1" satellites_param="F,0,0,1,0,0,0,1 @ F,0,0,1,0,0,0,1 @ F,0,0,1,0,0,0,1 @ F,0,0,1,0,0,0,1 @ F,0,0,1,0,0,0,1 @ F,0,0,1,0,0,0,1 @ F,0,0,1,0,0,0,1 @ F,0,1,1,0,30.932323,0,1 @ F,0,1,1,0,30.932323,0,1 @ F,0,0,1,0,0,0,1 @ F,0,0,1,0,0,0,1 @ F,0,0,1,0,0,0,1 @ F,0,0,1,0,0,0,1 @ F,0,0,1,0,0,0,1 @ F,0,0,1,0,0,0,1 @ F,0,0,1,0,0,0,1 @ F,0,0,1,0,0,0,1 @ F,0,0,1,0,0,0,1 @ F,0,0,1,0,0,0,1 @ F,0,0,1,0,0,0,1 @ F,0,0,1,0,0,0,1 @ F,0,1,1,0,30.932323,0,1 @ F,0,1,1,0,30.932323,0,1 @ F,0,0,1,0,0,0,1 @ F,0,0,1,0,0,0,1 @ F,0,0,1,0,0,0,1" unit="px" method="auto" mode="F" radius="0" chamfer_steps="1" flexible="false" use_knot_distance="true" apply_no_radius="true" apply_with_radius="true" only_selected="true" hide_knots="false" /></svg:defs>

<svg:g id="path860"><svg:path style="color:#000000;clip-rule:nonzero;fill:#1a5fb4;fill-rule:nonzero;stroke-linecap:round;stroke-linejoin:round;-inkscape-stroke:none;paint-order:fill stroke markers;shape-rendering:auto" d="M 266.9668,171.21875 C 252.95862999999997,171.46117 239.01072,173.13561 225.39647999999997,176.13867 C 173.68872999999996,187.5445 129.32136999999997,217.08241999999998 94.31054699999996,252.81054999999998 C 36.303187999999956,312.00636999999995 1.2624783999999636,390.0071 -11.140625000000043,470.37109 C -21.536847000000044,537.73181 -16.43811400000004,608.91297 10.675780999999958,673.4921899999999 C 25.038683999999957,707.7013999999999 45.579785999999956,739.9399 72.81249999999996,766.6582 C 100.10649999999995,793.4366299999999 133.88401999999996,814.26398 171.72069999999997,824.77734 C 236.93160999999998,842.89695 305.72619999999995,828.19442 361.71875,795.87109 C 383.58482,783.2482699999999 403.83645,767.93359 421.94141,750.36914 C 440.26272,732.59479 445.43871,713.3891 442.97852,690.20703 L 435.04102,615.40625 C 434.33775,608.77947 432.91986,602.07603 428.93945,594.89258 C 424.95905000000005,587.70913 417.08063000000004,579.6211599999999 406.50977,576.4921899999999 C 395.93891,573.36322 385.49875000000003,575.7295899999999 378.4082,579.21484 C 371.31766000000005,582.7000899999999 366.35818,587.16299 361.95898,592.01562 C 340.59749,615.57889 315.75126,636.04387 288.53319999999997,652.43555 C 270.14304,663.51075 251.47120999999996,672.12084 232.96679999999998,676.17773 C 214.67122999999998,680.18884 195.97764999999998,679.57162 180.76757999999998,673.72656 C 177.83719,672.6004499999999 174.96146,671.1751999999999 172.12695,669.61523 C 207.98414,650.15128 242.9879,629.11744 276.75977,606.2207 C 339.70254,563.54661 404.65068,510.42949999999996 436.82031,433.28515999999996 C 454.14431,391.74136999999996 460.90144,343.5589 447.08984,297.50194999999997 C 430.90094999999997,243.51749999999996 388.37334999999996,201.13872999999995 336.24805,182.43554999999998 C 313.82907,174.39135 290.31374999999997,170.81471 266.9668,171.21874999999997 L 266.9668,171.21875 M 267.9375,231.25 C 284.46912,230.97668 300.88889,233.49372 315.98437,238.91016 C 350.262,251.20937999999998 379.44010000000003,280.79271 389.61914,314.73633 C 398.46245,344.22574000000003 394.47505,378.94272 381.44336000000004,410.19336 C 356.72542000000004,469.46817999999996 302.48579000000007,516.28919 243.08984000000004,556.55859 C 207.22693000000004,580.87302 169.97746000000004,603.1312399999999 131.66211000000004,623.3671899999999 C 128.76756000000003,617.0475499999999 126.21045000000004,610.4572999999999 124.18945000000004,603.56445 C 123.38748000000004,600.8292399999999 122.74098000000004,598.0312399999999 122.07617000000003,595.24023 C 152.04820000000004,588.7817 181.14694000000003,578.33248 208.32617000000005,564.0 C 262.38881000000003,535.49105 309.82013000000006,490.92392 335.70703000000003,433.02148 C 343.35092000000003,415.92405 349.41985000000005,397.02617 351.35547,376.55273 C 353.30345,355.94849 350.95411,334.06986 341.81445,313.52148 C 332.1019,291.68507 314.63730000000004,271.70878 289.04102,262.61914 C 271.72793,256.47099000000003 254.24413,256.66676 238.59375,259.9707 C 223.12185,263.23697000000004 209.75414,269.40089 198.08594,275.90430000000003 C 157.94164,298.27919 126.03021,332.07270000000005 103.44530999999999,370.41797 C 80.92322099999998,408.6566 67.70473899999999,450.94455000000005 61.115233999999994,493.32617000000005 C 58.569447,509.69987000000003 57.01399299999999,526.54127 56.78320299999999,543.56641 A 30.003,30.003 0.0 0,0 44.24804699999999,548.2168 C 43.324966999999994,525.3833900000001 44.64174799999999,502.29316000000006 48.15624999999999,479.52148000000005 C 58.84179199999999,410.28616000000005 89.229039,343.72185 137.16602,294.80273000000005 C 165.92054000000002,265.45908000000003 201.0605,242.94933000000006 238.32031,234.73047000000005 C 248.05848,232.58240000000006 258.01853,231.41399000000004 267.9375,231.25000000000006 L 267.9375,231.25 M 260.91211,317.76953000000003 C 263.97492,317.87569 266.72475,318.36536 268.96288999999996,319.16016 C 275.43808999999993,321.4596 282.87345999999997,328.64625 286.99218999999994,337.90625 C 291.14811999999995,347.24989 292.7523999999999,358.9402 291.6210899999999,370.90625 C 290.47741999999994,383.0031 286.6404399999999,395.76408 280.9316399999999,408.5332 C 261.6027599999999,451.76700000000005 224.2705599999999,487.76167000000004 180.3398399999999,510.92773 C 160.40301999999988,521.44106 139.07877999999988,529.39376 117.1308599999999,534.78125 C 117.6521599999999,524.10469 118.7253199999999,513.33102 120.4023399999999,502.54492 C 126.0454899999999,466.25 137.2564499999999,431.23476 155.1425799999999,400.86719 C 172.9658999999999,370.60625 197.8925599999999,344.70134 227.2968699999999,328.3125 C 235.8258599999999,323.55877 243.8343899999999,320.18562 250.9863299999999,318.67578 C 254.4730599999999,317.93969999999996 257.8492899999999,317.66337 260.91210999999987,317.76953 L 260.91211,317.76953000000003 M 379.35742,659.27344 L 383.3125,696.5390600000001 C 383.26,696.0446700000001 378.21419,709.19635 380.16406,707.30469 C 365.60214,721.4318800000001 349.27454,733.77587 331.72266,743.9082000000001 C 287.53051000000005,769.4194100000001 234.02941,779.8168400000001 187.78320000000002,766.9668 C 160.87044000000003,759.48877 135.50830000000002,744.11383 114.83203000000002,723.82812 C 108.13073000000001,717.25341 101.92842000000002,710.09703 96.14062500000001,702.5488300000001 A 30.003,30.003 0.0 0,0 112.07813000000002,700.3769500000001 C 112.38829000000001,700.2298000000001 112.68995000000001,700.0653800000001 113.00000000000001,699.9179700000001 C 126.07155000000002,712.49319 141.55479000000003,722.9338500000001 159.24609,729.73242 C 187.89703,740.74265 218.21392,740.83866 245.81641000000002,734.7871100000001 C 273.21005,728.7813400000001 297.62421,717.0001200000002 319.48633,703.8339800000001 C 340.85248,690.9665400000001 360.89186,675.9904500000001 379.35742,659.2734400000002 L 379.35742,659.27344" id="path12770" /></svg:g>
   </svg:svg>

<svg:svg xmlns:cc="http://creativecommons.org/ns#" xmlns:dc="http://purl.org/dc/elements/1.1/" xmlns:inkscape="http://www.inkscape.org/namespaces/inkscape" xmlns:rdf="http://www.w3.org/1999/02/22-rdf-syntax-ns#" xmlns:sodipodi="http://sodipodi.sourceforge.net/DTD/sodipodi-0.dtd" xmlns:svg="http://www.w3.org/2000/svg" xml:space="preserve" width="1000" height="1000" version="1.1" style="clip-rule:evenodd;fill-rule:evenodd;image-rendering:optimizeQuality;shape-rendering:geometricPrecision;text-rendering:geometricPrecision" viewBox="0 0 1000 1000" id="svg10" sodipodi:docname="e.svg" inkscape:version="1.1.1 (3bf5ae0d25, 2021-09-20)"><svg:text text-anchor="middle" x="253.84598" y="143.09555" id="top" inkscape:label="top" style="clip-rule:evenodd;fill-rule:evenodd;image-rendering:optimizeQuality;shape-rendering:geometricPrecision;text-rendering:geometricPrecision">✛</svg:text><svg:metadata id="metadata14"><rdf:RDF><cc:Work rdf:about=""><dc:format>image/svg+xml</dc:format><dc:type rdf:resource="http://purl.org/dc/dcmitype/StillImage" /><dc:title /></cc:Work></rdf:RDF></svg:metadata><sodipodi:namedview pagecolor="#ffffff" bordercolor="#666666" borderopacity="1" objecttolerance="10" gridtolerance="10" guidetolerance="10" inkscape:pageopacity="0" inkscape:pageshadow="2" inkscape:window-width="1920" inkscape:window-height="1009" id="namedview12" showgrid="false" inkscape:zoom="0.84890884" inkscape:cx="130.1671" inkscape:cy="268.58008" inkscape:window-x="0" inkscape:window-y="60" inkscape:window-maximized="1" inkscape:current-layer="svg10" showguides="true" inkscape:guide-bbox="true" inkscape:document-rotation="0" inkscape:pagecheckerboard="0"><sodipodi:guide position="0,1000" orientation="0,1" id="guide16" inkscape:label="" inkscape:locked="true" inkscape:color="rgb(0,0,255)" /><sodipodi:guide position="1763.3122,2036.1693" orientation="1000,0" id="guide18" /><sodipodi:guide position="0,200" orientation="0,1" id="guide20" inkscape:label="base" inkscape:locked="true" inkscape:color="rgb(0,0,255)" /><inkscape:grid type="xygrid" id="grid24" originx="-473.37552" originy="-489.69235" /><sodipodi:guide position="0,0" orientation="0,1" id="guide34" inkscape:label="bottom" inkscape:locked="true" inkscape:color="rgb(0,0,255)" /><sodipodi:guide position="225.05109,1693.3186" orientation="0,1" id="guide44" inkscape:label="" inkscape:locked="false" inkscape:color="rgb(0,0,255)" /><sodipodi:guide position="0,900" orientation="0,1" id="guide46" inkscape:label="" inkscape:locked="true" inkscape:color="rgb(0,0,255)" /><sodipodi:guide position="438.5225,567.81901" orientation="-1,0" id="guide841" inkscape:label="width" inkscape:locked="false" inkscape:color="rgb(0,0,255)" /><sodipodi:guide position="-4.7119311,798.56494" orientation="0,-1" id="guide854" /></sodipodi:namedview>
 <svg:defs id="defs4"><inkscape:path-effect effect="fillet_chamfer" id="path-effect869" is_visible="true" lpeversion="1" satellites_param="F,0,0,1,0,0,0,1 @ F,0,0,1,0,0,0,1 @ F,0,0,1,0,0,0,1 @ F,0,0,1,0,0,0,1 @ F,0,0,1,0,0,0,1 @ F,0,0,1,0,0,0,1 @ F,0,0,1,0,0,0,1 @ F,0,1,1,0,20.655196,0,1 @ F,0,0,1,0,28.137051,0,1 @ F,0,0,1,0,0,0,1 @ F,0,0,1,0,0,0,1 @ F,0,0,1,0,0,0,1 @ F,0,0,1,0,0,0,1 @ F,0,0,1,0,0,0,1 @ F,0,0,1,0,0,0,1 @ F,0,0,1,0,0,0,1 @ F,0,0,1,0,0,0,1 @ F,0,0,1,0,0,0,1 @ F,0,0,1,0,0,0,1 @ F,0,0,1,0,0,0,1 @ F,0,0,1,0,0,0,1 @ F,0,0,1,0,0,0,1 @ F,0,0,1,0,0,0,1 @ F,0,0,1,0,0,0,1 @ F,0,0,1,0,0,0,1 @ F,0,0,1,0,0,0,1 @ F,0,0,1,0,0,0,1 @ F,0,0,1,0,0,0,1 @ F,0,0,1,0,0,0,1" unit="px" method="auto" mode="F" radius="0" chamfer_steps="1" flexible="false" use_knot_distance="true" apply_no_radius="true" apply_with_radius="true" only_selected="true" hide_knots="false" /><inkscape:path-effect effect="fillet_chamfer" id="path-effect855" is_visible="true" lpeversion="1" satellites_param="F,0,1,1,0,0,0,1 @ F,0,1,1,0,0,0,1 @ F,0,0,1,0,0,0,1 @ F,0,0,1,0,0,0,1 @ F,0,1,1,0,0,0,1 @ F,0,0,1,0,0,0,1 @ F,0,0,1,0,0,0,1 @ F,0,0,1,0,0,0,1 @ F,0,0,1,0,0,0,1 @ F,0,0,1,0,0,0,1 @ F,0,0,1,0,0,0,1 @ F,0,1,1,0,0,0,1 @ F,0,0,1,0,0,0,1 @ F,0,1,1,0,0,0,1 @ F,0,0,1,0,0,0,1 @ F,0,0,1,0,0,0,1 @ F,0,0,1,0,0,0,1 @ F,0,0,1,0,0,0,1 @ F,0,0,1,0,0,0,1 @ F,0,0,1,0,0,0,1 @ F,0,0,1,0,0,0,1 @ F,0,0,1,0,0,0,1 @ F,0,0,1,0,20.439656,0,1 @ F,0,0,1,0,36.251438,0,1 @ F,0,1,1,0,0,0,1 @ F,0,0,1,0,0,0,1 @ F,0,1,1,0,0,0,1 @ F,0,0,1,0,0,0,1 @ F,0,0,1,0,0,0,1" unit="px" method="auto" mode="F" radius="0" chamfer_steps="1" flexible="false" use_knot_distance="true" apply_no_radius="true" apply_with_radius="true" only_selected="true" hide_knots="false" /><inkscape:path-effect effect="spiro" id="path-effect862" is_visible="true" lpeversion="1" /><inkscape:path-effect effect="spiro" id="path-effect857" is_visible="true" lpeversion="1" /><inkscape:path-effect effect="spiro" id="path-effect853" is_visible="true" lpeversion="1" /><inkscape:path-effect effect="spiro" id="path-effect928" is_visible="true" lpeversion="1" /><inkscape:path-effect effect="spiro" id="path-effect921" is_visible="true" lpeversion="1" /><inkscape:path-effect effect="spiro" id="path-effect917" is_visible="true" lpeversion="1" /><inkscape:path-effect effect="spiro" id="path-effect849" is_visible="true" lpeversion="1" /><inkscape:path-effect effect="spiro" id="path-effect851" is_visible="true" lpeversion="1" />
  <svg:style type="text/css" id="style2">
   
    .fil0 {fill:#EF7F1A;fill-rule:nonzero}
   
  </svg:style>
 <inkscape:path-effect effect="spiro" id="path-effect1214" is_visible="true" lpeversion="1" /><inkscape:path-effect effect="spiro" id="path-effect1195" is_visible="true" lpeversion="1" /><inkscape:path-effect effect="spiro" id="path-effect992" is_visible="true" lpeversion="1" /><inkscape:path-effect effect="spiro" id="path-effect1060" is_visible="true" lpeversion="1" /><inkscape:path-effect effect="spiro" id="path-effect1047" is_visible="true" lpeversion="1" /><inkscape:path-effect effect="spiro" id="path-effect1085" is_visible="true" lpeversion="1" /><inkscape:path-effect effect="spiro" id="path-effect1286" is_visible="true" lpeversion="1" /><inkscape:path-effect effect="spiro" id="path-effect868" is_visible="true" lpeversion="1" /><inkscape:path-effect effect="fillet_chamfer" id="path-effect870" is_visible="true" lpeversion="1" satellites_param="F,0,0,1,0,0,0,1 @ F,0,0,1,0,0,0,1 @ F,0,0,1,0,0,0,1 @ F,0,0,1,0,0,0,1 @ F,0,0,1,0,0,0,1 @ F,0,0,1,0,0,0,1 @ F,0,0,1,0,0,0,1 @ F,0,1,1,0,30.932323,0,1 @ F,0,1,1,0,30.932323,0,1 @ F,0,0,1,0,0,0,1 @ F,0,0,1,0,0,0,1 @ F,0,0,1,0,0,0,1 @ F,0,0,1,0,0,0,1 @ F,0,0,1,0,0,0,1 @ F,0,0,1,0,0,0,1 @ F,0,0,1,0,0,0,1 @ F,0,0,1,0,0,0,1 @ F,0,0,1,0,0,0,1 @ F,0,0,1,0,0,0,1 @ F,0,0,1,0,0,0,1 @ F,0,0,1,0,0,0,1 @ F,0,1,1,0,30.932323,0,1 @ F,0,1,1,0,30.932323,0,1 @ F,0,0,1,0,0,0,1 @ F,0,0,1,0,0,0,1 @ F,0,0,1,0,0,0,1" unit="px" method="auto" mode="F" radius="0" chamfer_steps="1" flexible="false" use_knot_distance="true" apply_no_radius="true" apply_with_radius="true" only_selected="true" hide_knots="false" /></svg:defs>

<svg:g id="path860"><svg:path style="color:#000000;clip-rule:nonzero;fill:#1a5fb4;fill-rule:nonzero;stroke-linecap:round;stroke-linejoin:round;-inkscape-stroke:none;shape-rendering:auto" d="m 266.9668,171.21875 c -14.00817,0.24242 -27.95608,1.91686 -41.57032,4.91992 -51.70775,11.40583 -96.07511,40.94375 -131.085933,76.67188 -58.007359,59.19582 -93.0480686,137.19655 -105.451172,217.56054 -10.396222,67.36072 -5.297489,138.54188 21.816406,203.1211 14.362903,34.20921 34.904005,66.44771 62.136719,93.16601 27.294,26.77843 61.07152,47.60578 98.9082,58.11914 65.21091,18.11961 134.0055,3.41708 189.99805,-28.90625 21.86607,-12.62282 42.1177,-27.9375 60.22266,-45.50195 18.32131,-17.77435 23.4973,-36.98004 21.03711,-60.16211 l -7.9375,-74.80078 c -0.70327,-6.62678 -2.12116,-13.33022 -6.10157,-20.51367 -3.9804,-7.18345 -11.85882,-15.27142 -22.42968,-18.40039 -10.57086,-3.12897 -21.01102,-0.7626 -28.10157,2.72265 -7.09054,3.48525 -12.05002,7.94815 -16.44922,12.80078 -21.36149,23.56327 -46.20772,44.02825 -73.42578,60.41993 -18.39016,11.0752 -37.06199,19.68529 -55.5664,23.74218 -18.29557,4.01111 -36.98915,3.39389 -52.19922,-2.45117 -2.93039,-1.12611 -5.80612,-2.55136 -8.64063,-4.11133 35.85719,-19.46395 70.86095,-40.49779 104.63282,-63.39453 62.94277,-42.67409 127.89091,-95.7912 160.06054,-172.93554 17.324,-41.54379 24.08113,-89.72626 10.26953,-135.78321 -16.18889,-53.98445 -58.71649,-96.36322 -110.84179,-115.0664 -22.41898,-8.0442 -45.9343,-11.62084 -69.28125,-11.2168 z m 0.9707,60.03125 c 16.53162,-0.27332 32.95139,2.24372 48.04687,7.66016 34.27763,12.29922 63.45573,41.88255 73.63477,75.82617 8.84331,29.48941 4.85591,64.20639 -8.17578,95.45703 -24.71794,59.27482 -78.95757,106.09583 -138.35352,146.36523 -35.86291,24.31443 -73.11238,46.57265 -111.42773,66.8086 -2.89455,-6.31964 -5.45166,-12.90989 -7.47266,-19.80274 -0.80197,-2.73521 -1.44847,-5.53321 -2.11328,-8.32422 29.97203,-6.45853 59.07077,-16.90775 86.25,-31.24023 54.06264,-28.50895 101.49396,-73.07608 127.38086,-130.97852 7.64389,-17.09743 13.71282,-35.99531 15.64844,-56.46875 1.94798,-20.60424 -0.40136,-42.48287 -9.54102,-63.03125 -9.71255,-21.83641 -27.17715,-41.8127 -52.77343,-50.90234 -17.31309,-6.14815 -34.79689,-5.95238 -50.44727,-2.64844 -15.4719,3.26627 -28.83961,9.43019 -40.50781,15.9336 -40.1443,22.37489 -72.05573,56.1684 -94.64063,94.51367 -22.522089,38.23863 -35.740571,80.52658 -42.330076,122.9082 -2.545787,16.3737 -4.101241,33.2151 -4.332031,50.24024 a 30.003,30.003 0 0 0 -12.535156,4.65039 c -0.92308,-22.83341 0.393701,-45.92364 3.908203,-68.69532 10.685542,-69.23532 41.072789,-135.79963 89.00977,-184.71875 28.75452,-29.34365 63.89448,-51.8534 101.15429,-60.07226 9.73817,-2.14807 19.69822,-3.31648 29.61719,-3.48047 z m -7.02539,86.51953 c 3.06281,0.10616 5.81264,0.59583 8.05078,1.39063 6.4752,2.29944 13.91057,9.48609 18.0293,18.74609 4.15593,9.34364 5.76021,21.03395 4.6289,33 -1.14367,12.09685 -4.98065,24.85783 -10.68945,37.62695 -19.32888,43.2338 -56.66108,79.22847 -100.5918,102.39453 -19.93682,10.51333 -41.26106,18.46603 -63.20898,23.85352 0.5213,-10.67656 1.59446,-21.45023 3.27148,-32.23633 5.64315,-36.29492 16.85411,-71.31016 34.74024,-101.67773 17.82332,-30.26094 42.74998,-56.16585 72.15429,-72.55469 8.52899,-4.75373 16.53752,-8.12688 23.68946,-9.63672 3.48673,-0.73608 6.86296,-1.01241 9.92578,-0.90625 z m 118.44531,341.50391 3.95508,37.26562 c -0.0525,-0.49439 -5.09831,12.65729 -3.14844,10.76563 -14.56192,14.12719 -30.88952,26.47118 -48.4414,36.60351 -44.19215,25.51121 -97.69325,35.90864 -143.93946,23.0586 -26.91276,-7.47803 -52.2749,-22.85297 -72.95117,-43.13868 -6.7013,-6.57471 -12.90361,-13.73109 -18.691405,-21.27929 a 30.003,30.003 0 0 0 15.937505,-2.17188 c 0.31016,-0.14715 0.61182,-0.31157 0.92187,-0.45898 13.07155,12.57522 28.55479,23.01588 46.24609,29.81445 28.65094,11.01023 58.96783,11.10624 86.57032,5.05469 27.39364,-6.00577 51.8078,-17.78699 73.66992,-30.95313 21.36615,-12.86744 41.40553,-27.84353 59.87109,-44.56054 z" id="path12752" /></svg:g>
   </svg:svg>
